icons/svgs/trees-solid.svg

<svg width="25" height="24" viewBox="0 0 25 24" fill="none" xmlns="http://www.w3.org/2000/svg">
<path d="M2.73438 6.76562L6.95312 2.23438C7.10938 2.11719 7.26562 2 7.5 2C7.69531 2 7.89062 2.11719 8.00781 2.23438L12.2266 6.76562C12.3828 6.92188 12.5 7.15625 12.5 7.39062C12.5 7.85938 12.0703 8.25 11.6016 8.25H10.625L13.5156 11.7656C13.6719 11.9219 13.75 12.1172 13.75 12.3516C13.75 12.8594 13.3203 13.25 12.8125 13.25H11.875L14.7656 16.7656C14.9219 16.9219 15 17.1172 15 17.3516C15 17.8594 14.5703 18.25 14.0625 18.25H8.75V20.75C8.75 21.4531 8.16406 22 7.5 22C6.79688 22 6.25 21.4531 6.25 20.75V18.25H0.898438C0.390625 18.25 0 17.8594 0 17.3516C0 17.1172 0.0390625 16.9219 0.195312 16.7656L3.125 13.25H2.14844C1.64062 13.25 1.25 12.8594 1.25 12.3516C1.25 12.1172 1.28906 11.9219 1.44531 11.7656L4.375 8.25H3.35938C2.89062 8.25 2.5 7.85938 2.5 7.39062C2.5 7.15625 2.57812 6.92188 2.73438 6.76562ZM13.3203 6.10156L16.9531 2.23438C17.1094 2.11719 17.2656 2 17.5 2C17.6953 2 17.8906 2.11719 18.0078 2.23438L22.2266 6.76562C22.3828 6.92188 22.5 7.15625 22.5 7.39062C22.5 7.85938 22.0703 8.25 21.6016 8.25H20.625L23.5156 11.7656C23.6719 11.9219 23.75 12.1172 23.75 12.3516C23.75 12.8594 23.3203 13.25 22.8125 13.25H21.875L24.7656 16.7656C24.9219 16.9219 25 17.1172 25 17.3516C25 17.8594 24.5703 18.25 24.0625 18.25H18.75V20.75C18.75 21.4531 18.1641 22 17.5 22C16.7969 22 16.25 21.4531 16.25 20.75V18.25V17.3516V17.3125C16.2109 16.8438 16.0547 16.3359 15.7422 15.9453L14.1406 14.0703C14.6484 13.6797 14.9609 13.0547 14.9609 12.3516C14.9609 11.8438 14.8047 11.3359 14.4922 10.9453L12.8906 9.07031C13.3984 8.67969 13.7109 8.05469 13.7109 7.39062C13.7109 6.92188 13.5938 6.49219 13.3203 6.10156Z" fill="black"/>
</svg>

<svg xmlns="http://www.w3.org/2000/svg" width="24" height="24" fill="currentColor" class="icon-trees-solid" viewBox="0 0 24 24">
  <mask id="a" width="25" height="20" x="0" y="2" maskUnits="userSpaceOnUse" style="mask-type:alpha">
    <path d="m2.734 6.766 4.22-4.532C7.108 2.117 7.265 2 7.5 2c.195 0 .39.117.508.234l4.219 4.532a.92.92 0 0 1 .273.625c0 .468-.43.859-.898.859h-.977l2.89 3.516a.8.8 0 0 1 .235.586c0 .507-.43.898-.937.898h-.938l2.89 3.516a.8.8 0 0 1 .235.586c0 .507-.43.898-.937.898H8.75v2.5c0 .703-.586 1.25-1.25 1.25-.703 0-1.25-.547-1.25-1.25v-2.5H.898A.884.884 0 0 1 0 17.352c0-.235.04-.43.195-.586l2.93-3.516h-.977a.884.884 0 0 1-.898-.898c0-.235.04-.43.195-.586l2.93-3.516H3.359a.867.867 0 0 1-.859-.86c0-.234.078-.468.234-.624m10.586-.664 3.633-3.868c.156-.117.313-.234.547-.234.195 0 .39.117.508.234l4.219 4.532a.92.92 0 0 1 .273.625c0 .468-.43.859-.898.859h-.977l2.89 3.516a.8.8 0 0 1 .235.586c0 .507-.43.898-.937.898h-.938l2.89 3.516a.8.8 0 0 1 .235.586c0 .507-.43.898-.937.898H18.75v2.5c0 .703-.586 1.25-1.25 1.25-.703 0-1.25-.547-1.25-1.25v-3.438c-.04-.468-.195-.976-.508-1.367l-1.601-1.875a2.15 2.15 0 0 0 .82-1.718c0-.508-.156-1.016-.469-1.407L12.891 9.07a2.13 2.13 0 0 0 .82-1.68 2.18 2.18 0 0 0-.39-1.288"/>
  </mask>
  <g mask="url(#a)">
    <path d="M0 0h24v24H0z"/>
  </g>
</svg>
